images/qr.svg

<svg id="Layer_1" data-name="Layer 1" xmlns="http://www.w3.org/2000/svg" viewBox="0 0 792 792"><defs><style>.cls-1{fill:#fff;}.cls-2{fill:#43af5a;}.cls-3{fill:#fc0;}.cls-4{fill:#d2e4f4;}.cls-5{fill:#009ade;}.cls-6{fill:#003764;}</style></defs><title>lfdl-qrcode</title><path class="cls-1" d="M-.07348.55325h792.2521v792H-.07348Zm438.721,438.61128q-14.73126.00006-29.46254.00009v-57.316H379.96551v27.27893h-27.782V351.0993h27.41034c0-10.5972,0-19.78274.03322-28.94055q14.952.18717,29.90557.375v28.40639h27.96451V322.90747H409.15605V265.585h30.05073V292.9479h27.44911V235.08h-58.014V207.25075c-10.57644,0-19.75375,0-28.9035-.03312l.43449-59.04781H410.0422v28.563h56.58435V118.73868H408.92544V91.14863H380.54713c0,19.70337,0,38.54982-.00077,57.39771q-14.71023.03593-29.42195.07116V120.21125H323.15992V148.2438H351.501V178.099H322.93292v28.746H380.064v29.16486H323.016v56.74232h29.00335V265.38681h27.98022v57.098H264.7341v29.45214h56.604v58.19348c-10.03139,0-19.19707,0-28.36284-.00008V380.53983H235.30091V323.43032H90.52791V438.04355H119.5162V352.54574h56.52161v28.96138H148.57015V410.219h28.567c0,10.56806,0,19.73912-.0007,28.91173H148.73014v27.96454h28.03265V438.75411h29.85263v-58.62c10.63722,0,19.83794,0,29.01114.03314V438.7814c10.408,0,19.5269,0,28.64591.00008v28.3453h28.7028V438.7814h29.79648v88.1259h114.94V555.554H409.58913c0,10.56979,0,19.73638-.00016,28.90314q-14.73127-.00006-29.46251-.00016V556.21925H323.26624v143.559H351.604V671.24909c10.56261,0,19.73251,0,28.9025.00008v28.376h86.79534c0-10.038,0-19.19483.00016-28.35179q14.73128.00006,29.46255.00016v28.35679H612.59254c0-10.03561,0-19.1954.00008-28.35526q14.70328-.02007,29.40809-.03942v28.40645h27.96442V671.60933h-28.341V612.95754h28.29956V584.45507H612.59262V554.5973h29.71746v-28.722h28.385c0-10.57551,0-19.74657.00076-28.91914h28.406V439.97531H671.06931v57.35735h-29.8651V467.54954H613.6775V438.33909h28.666V409.59542h29.21045V380.385H699.0963V351.17459H670.4357V323.6241H641.22529v27.47H612.48153V323.776H583.27116v27.16614H554.06071v-27.4809H525.317v27.329H496.10659V323.622H467.70787c0,19.71634,0,38.57016-.00008,57.4241h-29.0601C438.64769,401.46242,438.64769,420.31342,438.64753,439.16453ZM90.833,90.90441V292.63079H292.48578V90.90441ZM497.04506,292.52349H699.12733V91.3058H497.04506ZM90.553,497.65324V699.73487H292.30473V497.65324Z"/><path d="M612.59254,671.27513v28.35518H496.76459V671.27352l-.38628.36362h28.30447V613.53992c-19.7411,0-38.54885,0-57.35663,0l.36205-29.44642-.36838.36822h29.42683V555.03486l-.36838.36834h29.67348v27.87764h28.40943c0-19.7509,0-38.50777.00036-57.26537,19.117-.00077,38.23379-.00077,57.4576-.00077V498.02214H554.83553v28.369q-29.22867-.20733-58.4573-.41462l.36842.36822V496.91788H467.31982l.36838.36822V467.46755h29.25745V439.78348h29.13742v27.65328h28.65959V409.63911h57.06185V380.684H467.3199l.388.362V323.622h28.39872v27.16824H525.317v-27.329h28.74367v27.4809h29.21045V323.776h29.21037v27.318h28.74376v-27.47H670.4357v27.55049h28.6606V380.385H671.55391v29.21046H642.34346v28.74367h-28.666v29.21045h27.52671v29.78312h29.8651l-.37426-.375v28.91764h-28.385v28.722H612.59262v29.85777l.38786-.36177H583.24553v29.95359H555.36942v28.56575h28.80192v29.02455h28.80914Z"/><path d="M90.833,90.90441H292.48578V292.63079H90.833ZM263.7308,120.38768H119.67416V263.82012H263.7308Z"/><path d="M497.04506,292.52349V91.3058H699.12733V292.52349ZM670.52825,120.36636H526.47253V263.84052H670.52825Z"/><path d="M379.59386,322.131V351.0993H352.18352v58.02821h27.782V381.84858H409.185v57.316l.38628-.36359H352.21v29.42659h57.3613l-.36842-.36822v29.4267H467.6882l-.36838-.36822v29.42683h29.42683l-.36842-.36822q0,14.71338,0,29.42671l.36838-.36834H467.31982v29.42682l.36842-.36822H409.20277l.38636.36351V555.554H437.7118V526.9073h-114.94V438.7814H292.97527l.362.38789q0-14.71344,0-29.42687l-.36193.388h28.36276V351.93691h-56.604V322.48477q57.56352,0,115.28087.01449C380.03041,322.51375,379.59386,322.131,379.59386,322.131Z"/><path d="M90.553,497.65324H292.30473V699.73487H90.553Zm29.4644,29.035V670.75208H263.4547V526.68826Z"/><path d="M177.13719,439.12922V410.219h-28.567V381.50712h27.46766V352.54574H119.5162v85.49781H90.52791V323.43032h144.773c0,18.86847,0,37.989-.01441,57.12491-.01439.0154.36759-.42115.36759-.42115H206.61542v58.62H176.76279Z"/><path d="M379.71084,207.25075h28.931V235.08h58.014V292.9479H439.20678V265.585H409.15605v57.32243l.37511-.37441q-14.952-.18713-29.92069-.38817c-.01661-.01387.41994.36886.4045.35437-.01544-18.7993-.01544-37.58411-.01544-57.11245H352.01931v27.36537H323.016V236.00986H380.064c0-10.32644,0-19.74565.01439-29.18024C380.09281,206.81422,379.71084,207.25075,379.71084,207.25075Z"/><path d="M380.50641,671.24909H351.604v28.52915h-28.3378v-143.559h56.86022V584.457l.38628-.36363H352.18441v29.42683h28.32833l-.36826-.36842q0,29.24264,0,58.48531Z"/><path d="M380.54713,148.54489V91.14863h28.37831v27.59005h57.70111V176.7328H410.0422v-28.563H380.17286Z"/><path d="M612.59262,584.45507h57.33112v28.50247H641.62418v58.65179l.375-.37443q-14.70328.02008-29.40664.04019l.3879.3621V584.0933Z"/><path d="M380.17286,148.16982q-.21725,29.52389-.44824,59.06438c-.01378.01655.36819-.42.35379-.40458-18.8235.01538-37.63258.01538-57.14549.01538V178.099H351.501V148.2438l-.37511.37439q14.71023-.03592,29.42086-.07257Z"/><path d="M467.30188,671.27352v28.35163H380.50654c0-9.41679,0-18.89639-.00009-28.376l-.362.38793q43.7719-.00006,87.54384,0Z"/><path d="M264.27239,438.7814H235.62656c0-19.7883,0-39.20124.01377-58.63075.01376-.01657-.36822.42-.35383.40458,18.75605-.0154,37.49766-.0154,57.68877-.0154,0,10.66084,0,20.12564,0,29.59052l.362-.38793H263.91041v29.42687Z"/><path d="M671.06931,497.33266V439.97531h28.03255v56.98082q-14.20149,0-28.40645.00073Z"/><path d="M438.64769,439.16441v-58.1183c10.063,0,19.56152,0,29.06014-.00008l-.38793-.362v58.11693H438.26133Z"/><path d="M380.12646,584.457q14.73128.00006,29.46259.00008l-.38628-.36359q.194,14.71023.38793,29.42054-14.72318-.18108-29.44622-.36225l.36826.36842V584.09334Z"/><path d="M409.185,439.16462q14.73127-.00007,29.46262-.00017l-.38628-.36354V467.8594H409.20285l.36842.36822V438.801Z"/><path d="M292.97527,438.7814v28.34538h-28.7028c0-9.403,0-18.87417,0-28.34534l-.362.38785h29.42685Z"/><path d="M176.76279,438.75411v28.34115H148.73014V439.13072q14.23956,0,28.40669-.00077Z"/><path d="M496.76459,671.27352q-14.73127-.00012-29.46263-.00008l.38624.36358-.36205-29.44637h29.05216v29.44649Z"/><path d="M409.15605,322.90747h28.34111v28.03269H409.53265q0-14.23959-.00076-28.40674Z"/><path d="M351.501,148.2438H323.15992V120.21125h27.96449q0,14.23942.00076,28.40659Z"/><path d="M641.62418,671.60933h28.341v28.03275H642.00071q0-14.23971-.00077-28.40681Z"/><path class="cls-1" d="M409.20285,467.8594h29.05848V438.80091H467.3199V380.684c47.83177,0,95.66354,0,144.48461,0v28.95509H554.74266v57.79765H526.08307V439.78348H496.94565v27.68407H467.6882V497.2861H409.20285Z"/><path class="cls-1" d="M612.98048,584.0933v87.54389H584.17134V642.61264H555.36942V614.04689h27.87611V584.0933Z"/><path class="cls-1" d="M496.37831,671.63714V642.19065H467.32619l.36205.38789V613.152l-.362.388h57.35655v58.09722Z"/><path class="cls-1" d="M496.37827,555.4032q0-14.71338,0-29.42671,29.22867.20727,58.4573.41462l-.37435-.37488v57.26461H526.05175V555.4032Z"/><path class="cls-1" d="M554.83553,526.39115v-28.369h57.08361V526.0147c-19.22381,0-38.34056,0-57.4576.00077Z"/><path class="cls-1" d="M409.59074,613.514q-.194-14.71023-.388-29.4205H467.6882l-.36205,29.44642.36209-.38793H409.20281Z"/><path class="cls-1" d="M467.31982,584.46168V555.03486h29.42683v29.42682Z"/><path class="cls-1" d="M496.74665,526.34471H467.31982V496.91788h29.42683Z"/><path class="cls-1" d="M263.7308,120.38768V263.82012H119.67416V120.38768ZM234.312,234.95887V149.24426H148.81465v85.71461Z"/><path class="cls-1" d="M670.52825,120.36636V263.84052H526.47253V120.36636ZM555.60543,148.97524v85.54567H641.161V148.97524Z"/><path class="cls-1" d="M409.57127,438.801v29.42659H352.21V438.801Z"/><path class="cls-1" d="M293.33726,439.16929H263.91041V409.74242h29.42687Q293.33728,424.45586,293.33726,439.16929Z"/><path class="cls-1" d="M120.0174,526.68826H263.4547V670.75208H120.0174Zm114.54972,29.5636H148.53694V641.5892h86.03018Z"/><path class="cls-1" d="M467.32615,642.19065l.36205,29.44637q-43.77183,0-87.5438,0,.00012-29.24264.00008-58.48531,14.72311.18114,29.44622.36225l-.38789-.362v29.42659h58.48543Z"/><path class="cls-1" d="M380.51274,584.09334v29.42683H352.18441V584.09334Z"/><path d="M467.68824,642.57854H409.20281V613.152h58.48543Z"/><path d="M234.312,234.95887H148.81465V149.24426H234.312Z"/><path d="M555.60543,148.97524H641.161v85.54567H555.60543Z"/><path d="M234.56712,556.25186V641.5892H148.53694V556.25186Z"/><rect class="cls-1" x="332.38886" y="334.46174" width="135.18288" height="134.18288"/><path class="cls-2" d="M427.04857,449.9582h20.4948V432.06139c-7.26-5.20127-14.45446-10.40862-21.579-15.752-2.17223-1.6479-3.82015-1.72281-5.99238.0749-4.04485,3.37072-8.31443,6.44181-12.43419,9.73763-1.72282,1.34829-2.99619,1.34829-4.56919-.29962-7.49048-7.56538-15.20571-14.981-22.62124-22.62123-1.87262-1.94752-3.22091-1.94752-5.24334-.29962-7.57564,6.22655-15.18814,12.38109-22.81074,18.53856V449.9582h61.18613v18.68656h13.56912V449.9582Z"/><path class="cls-3" d="M418.399,396.30985a15.13122,15.13122,0,1,0-15.28056-15.13076A15.25279,15.25279,0,0,0,418.399,396.30985Z"/><path class="cls-4" d="M352.2933,388.75736V421.44c7.62262-6.15747,15.23512-12.312,22.81075-18.53857,2.02242-1.64791,3.37071-1.64791,5.24333.29962,7.41557,7.64028,15.13076,15.05585,22.62124,22.62124,1.573,1.6479,2.84638,1.6479,4.56919.29961,4.11976-3.2958,8.38933-6.3669,12.4342-9.73762,2.17223-1.79771,3.82014-1.72281,5.99238-.0749,7.1245,5.34337,14.319,10.55072,21.579,15.752V354.764h-95.2883v20.39921H332.38886v13.59418Zm66.03079-22.709a14.96566,14.96566,0,0,1,15.13177,14.7977q.00228.204-.001.408a15.16844,15.16844,0,0,1-30.33642-.0749,15.01133,15.01133,0,0,1,14.89015-15.13154Q418.16635,366.04628,418.32409,366.04832Z"/><polygon class="cls-5" points="413.479 449.958 352.293 449.958 352.293 421.44 352.293 392.488 352.293 388.757 338.437 388.757 332.389 388.757 332.389 407.653 332.389 459.23 332.389 468.645 413.479 468.645 413.479 459.23 413.479 449.958"/><polygon class="cls-6" points="332.389 340.125 332.389 364.976 332.389 375.163 338.424 375.163 343.013 375.163 352.255 375.163 352.255 354.764 447.544 354.764 447.544 432.061 447.544 449.958 427.048 449.958 427.048 459.23 427.048 468.645 454.88 468.645 458.881 468.645 467.716 468.645 467.716 334.462 454.88 334.462 332.389 334.462 332.389 338.933 332.389 340.125"/></svg>

<svg xmlns="http://www.w3.org/2000/svg" role="img" viewBox="78.32 78.32 632.86 633.36"><defs><style>.cls-1{fill:#fff}</style></defs><path d="M-.073.553h792.252v792H-.073zm438.72 438.612h-29.462v-57.316h-29.22v27.279h-27.781v-58.029h27.41c0-10.597 0-19.782.033-28.94l29.906.375v28.406h27.964v-28.033h-28.341v-57.322h30.05v27.363h27.45V235.08h-58.014v-27.83c-10.577 0-19.754 0-28.904-.032l.435-59.048h29.87v28.563h56.584v-57.994h-57.702v-27.59h-28.378v57.397l-29.423.071v-28.406H323.16v28.033h28.34v29.855h-28.568v28.746h57.131v29.165h-57.048v56.742h29.003v-27.365H380v57.098H264.735v29.452h56.604v58.193h-28.363v-29.59h-57.674v-57.11H90.528v114.614h28.988v-85.498h56.522v28.961H148.57v28.712h28.567v28.912H148.73v27.964h28.033v-28.34h29.852v-58.62c10.638 0 19.838 0 29.012.032v58.614h28.645v28.346h28.703V438.78h29.797v88.126h114.94v28.647h-28.123v28.903h-29.463v-28.238h-56.86v143.56h28.338v-28.53h28.902v28.376h86.796v-28.352h29.463v28.357h115.828v-28.355l29.408-.04v28.407h27.964V671.61h-28.34v-58.651h28.299v-28.503h-57.331v-29.858h29.717v-28.722h28.385v-28.919h28.407v-56.98h-28.033v57.357h-29.865V467.55h-27.526v-29.21h28.666v-28.745h29.21v-29.21h27.542v-29.21h-28.66v-27.55h-29.21v27.47h-28.744v-27.319h-29.21v27.166H554.06v-27.48h-28.744v27.328h-29.21v-27.168h-28.4v57.424h-29.06v58.119zM90.834 90.905V292.63h201.653V90.904zm406.212 201.618h202.082V91.306H497.045zM90.553 497.653v202.082h201.752V497.653z" class="cls-1"/><path d="M612.593 671.275v28.355H496.765v-28.356l-.387.363h28.305V613.54h-57.357l.362-29.446-.368.368h29.427v-29.427l-.369.368h29.674v27.878h28.41v-57.266h57.457v-27.993h-57.083v28.37l-58.458-.415.369.368v-29.427H467.32l.368.368v-29.818h29.258v-27.685h29.137v27.654h28.66v-57.798h57.062v-28.955H467.32l.388.362v-57.424h28.399v27.168h29.21v-27.329h28.744v27.481h29.21v-27.166h29.21v27.318h28.744v-27.47h29.21v27.55h28.661v29.211h-27.542v29.21h-29.21v28.744h-28.667v29.21h27.527v29.784h29.865l-.374-.375v28.917H642.31v28.722h-29.717v29.858l.387-.362h-29.734v29.954h-27.877v28.566h28.802v29.024h28.81zM90.833 90.904h201.653v201.727H90.833zm172.898 29.484H119.674V263.82h144.057zm233.314 172.135V91.306h202.082v201.217zm173.483-172.157H526.473v143.475h144.055z"/><path d="M379.594 322.131v28.968h-27.41v58.029h27.782v-27.28h29.219v57.317l.386-.364H352.21v29.427h57.361l-.368-.369v29.427h58.485l-.368-.368v29.427h29.427l-.369-.369v29.427l.369-.368H467.32v29.427l.368-.369h-58.485l.386.364v-28.903h28.123v-28.647h-114.94v-88.126h-29.797l.362.388v-29.427l-.362.388h28.363v-58.193h-56.604v-29.452q57.564 0 115.281.014c.015.015-.421-.368-.421-.368zM90.553 497.653h201.752v202.082H90.553zm29.464 29.035v144.064h143.438V526.688zm57.12-87.558v-28.911H148.57v-28.712h27.468v-28.961h-56.522v85.498H90.528V323.43H235.3c0 18.869 0 37.99-.015 57.125l.368-.42h-29.039v58.62h-29.852z"/><path d="M379.71 207.25h28.932v27.83h58.014v57.868h-27.45v-27.363h-30.05v57.322l.375-.374q-14.952-.187-29.92-.388l.404.354C380 303.7 380 284.915 380 265.387h-27.98v27.365h-29.004V236.01h57.048c0-10.327 0-19.746.014-29.18l-.367.42zm.796 464h-28.902v28.528h-28.338V556.22h56.86v28.238l.387-.364h-28.329v29.427h28.329l-.369-.368v58.485zm.041-522.705V91.149h28.378v27.59h57.702v57.994h-56.585V148.17h-29.87zm232.046 435.91h57.33v28.503h-28.299v58.651l.375-.374-29.406.04.387.362v-87.544z"/><path d="M380.173 148.17q-.217 29.524-.448 59.064l.353-.404c-18.823.015-37.632.015-57.145.015v-28.746H351.5v-29.855l-.375.374 29.42-.072zm87.129 523.104v28.351h-86.795V671.25l-.363.388h87.544zm-203.03-232.493h-28.645c0-19.788 0-39.2.013-58.63l-.353.404c18.756-.015 37.497-.015 57.688-.015v29.59l.362-.388H263.91v29.427zm406.798 58.552v-57.358h28.032v56.981h-28.407zm-232.422-58.169v-58.118h29.06l-.388-.362v58.117h-29.06zm-58.522 145.293h29.463l-.386-.364.388 29.421-29.447-.362.369.368v-29.427z"/><path d="M409.185 439.165h29.463l-.387-.364v29.058h-29.058l.368.369V438.8zm-116.21-.384v28.346h-28.703V438.78l-.362.388h29.427zm-116.212-.027v28.341H148.73v-27.964l28.407-.001zm320.002 232.52h-29.463l.386.363-.362-29.446h29.052v29.446zm-87.609-348.367h28.341v28.033h-27.964l-.001-28.407zm-57.655-174.663H323.16V120.21h27.964l.001 28.407zM641.624 671.61h28.341v28.032h-27.964L642 671.235z"/><path d="M409.203 467.86h29.058V438.8h29.059v-58.116h144.485v28.955h-57.062v57.798h-28.66v-27.654h-29.137v27.685h-29.258v29.818h-58.485zM612.98 584.093v87.544h-28.809v-29.024H555.37v-28.566h27.877v-29.954zm-116.602 87.544v-29.446h-29.052l.362.388v-29.427l-.362.388h57.357v58.097zm0-116.234v-29.427l58.458.415-.375-.375v57.265h-28.41v-27.878zm58.458-29.012v-28.369h57.083v27.993h-57.457z" class="cls-1"/><path d="M409.59 613.514l-.387-29.42h58.485l-.362 29.446.362-.388h-58.485z" class="cls-1"/><path d="M467.32 584.462v-29.427h29.427v29.427zm29.427-58.117H467.32v-29.427h29.427zM263.73 120.388V263.82H119.675V120.388zm-29.418 114.57v-85.714h-85.497v85.715zm436.216-114.592v143.475H526.473V120.366zm-114.923 28.61v85.545h85.556v-85.546zM409.571 438.801v29.427H352.21V438.8zm-116.234.369H263.91v-29.428h29.427v29.427zm-173.32 87.518h143.438v144.064H120.017zm114.55 29.564h-86.03v85.337h86.03zm232.759 85.938l.362 29.447h-87.544v-58.485q14.724.18 29.447.362l-.388-.362v29.427h58.485z" class="cls-1"/><path d="M380.513 584.093v29.427h-28.329v-29.427z" class="cls-1"/><path d="M467.688 642.579h-58.485v-29.427h58.485zm-233.376-407.62h-85.497v-85.715h85.497zm321.293-85.984h85.556v85.546h-85.556zM234.567 556.252v85.337h-86.03v-85.337z"/><path d="M332.389 334.462h135.183v134.183H332.389z" class="cls-1"/><path fill="#43af5a" d="M427.049 449.958h20.494v-17.897c-7.26-5.2-14.454-10.408-21.579-15.752-2.172-1.648-3.82-1.722-5.992.075-4.045 3.371-8.314 6.442-12.434 9.738-1.723 1.348-2.996 1.348-4.57-.3-7.49-7.565-15.205-14.98-22.62-22.62-1.873-1.948-3.222-1.948-5.244-.3-7.576 6.226-15.188 12.38-22.81 18.538v28.518h61.185v18.687h13.57v-18.687z"/><path fill="#fc0" d="M418.399 396.31a15.131 15.131 0 1 0-15.28-15.13 15.253 15.253 0 0 0 15.28 15.13z"/><path fill="#d2e4f4" d="M352.293 388.757v32.683c7.623-6.157 15.235-12.312 22.811-18.539 2.022-1.647 3.37-1.647 5.243.3 7.416 7.64 15.131 15.056 22.622 22.621 1.573 1.648 2.846 1.648 4.569.3 4.12-3.296 8.39-6.367 12.434-9.738 2.172-1.797 3.82-1.723 5.992-.075 7.125 5.344 14.32 10.551 21.58 15.752v-77.297h-95.289v20.4H332.39v13.593zm66.031-22.709a14.966 14.966 0 0 1 15.132 14.798q.002.204-.001.408a15.168 15.168 0 0 1-30.337-.075 15.011 15.011 0 0 1 14.89-15.131q.158-.002.316 0z"/><path fill="#009ade" d="M413.479 449.958h-61.186v-61.201h-19.904v79.888h81.09v-18.687z"/><path fill="#003764" d="M332.389 340.125v35.038h19.866v-20.399h95.289v95.194h-20.496v18.687h40.668V334.462H332.389v5.663z"/></svg>
